assets/Face with tongue/Flat/face_with_tongue_flat.svg

<svg width="32" height="32" viewBox="0 0 32 32" fill="none" xmlns="http://www.w3.org/2000/svg">
<path d="M15.9989 29.9978C25.3333 29.9978 29.9978 23.7303 29.9978 15.9989C29.9978 8.26751 25.3333 2 15.9989 2C6.66443 2 2 8.26751 2 15.9989C2 23.7303 6.66443 29.9978 15.9989 29.9978Z" fill="#FFB02E"/>
<path d="M10.4191 16.2244C12.742 16.2244 14.6251 14.3414 14.6251 12.0185C14.6251 9.69557 12.742 7.8125 10.4191 7.8125C8.09621 7.8125 6.21313 9.69557 6.21313 12.0185C6.21313 14.3414 8.09621 16.2244 10.4191 16.2244Z" fill="white"/>
<path d="M21.5683 16.3011C23.9123 16.3011 25.8126 14.4009 25.8126 12.0568C25.8126 9.71274 23.9123 7.8125 21.5683 7.8125C19.2242 7.8125 17.324 9.71274 17.324 12.0568C17.324 14.4009 19.2242 16.3011 21.5683 16.3011Z" fill="white"/>
<path d="M11 15C12.6569 15 14 13.6569 14 12C14 10.3431 12.6569 9 11 9C9.34315 9 8 10.3431 8 12C8 13.6569 9.34315 15 11 15Z" fill="#402A32"/>
<path d="M21 15C22.6569 15 24 13.6569 24 12C24 10.3431 22.6569 9 21 9C19.3431 9 18 10.3431 18 12C18 13.6569 19.3431 15 21 15Z" fill="#402A32"/>
<path d="M15.9988 26C8.99878 26 8.99878 19 8.99878 19H22.9988C22.9988 19 22.9988 26 15.9988 26Z" fill="#BB1D80"/>
<path d="M16.0155 29C20.2155 29 20.8855 24.8 21.0155 23.75C21.1155 22.9 20.6655 22.47 20.1755 22.18C19.6855 21.89 18.2155 21.62 16.0155 21.62C13.8155 21.62 12.3555 21.89 11.8555 22.18C11.3555 22.47 10.9055 22.9 11.0155 23.75C11.1455 24.8 11.8155 29 16.0155 29Z" fill="#F70A8D"/>
<path d="M22.8588 20.43C22.9488 19.97 22.9988 19.49 22.9988 19C18.3388 19 11.8388 19 8.99878 19C8.99878 19.49 9.04878 19.96 9.13878 20.43H22.8588Z" fill="white"/>
</svg>

<svg xmlns="http://www.w3.org/2000/svg" width="32" height="32" fill="none"><path fill="#FFB02E" d="M15.999 29.998c9.334 0 13.999-6.268 13.999-14 0-7.73-4.665-13.998-14-13.998C6.665 2 2 8.268 2 15.999c0 7.731 4.664 13.999 13.999 13.999Z"/><path fill="#fff" d="M10.42 16.224a4.206 4.206 0 1 0 0-8.411 4.206 4.206 0 0 0 0 8.411ZM21.568 16.301a4.244 4.244 0 1 0 0-8.489 4.244 4.244 0 0 0 0 8.49Z"/><path fill="#402A32" d="M11 15a3 3 0 1 0 0-6 3 3 0 0 0 0 6ZM21 15a3 3 0 1 0 0-6 3 3 0 0 0 0 6Z"/><path fill="#BB1D80" d="M15.999 26c-7 0-7-7-7-7h14s0 7-7 7Z"/><path fill="#F70A8D" d="M16.015 29c4.2 0 4.87-4.2 5-5.25.1-.85-.35-1.28-.84-1.57-.49-.29-1.96-.56-4.16-.56s-3.66.27-4.16.56c-.5.29-.95.72-.84 1.57.13 1.05.8 5.25 5 5.25Z"/><path fill="#fff" d="M22.859 20.43c.09-.46.14-.94.14-1.43h-14c0 .49.05.96.14 1.43h13.72Z"/></svg>
